<?xml version="1.0" encoding="UTF-8"?>
<map version="1.10" tiledversion="1.12.2" orientation="orthogonal" renderorder="right-down" width="20" height="20" tilewidth="32" tileheight="32" infinite="0" nextlayerid="7" nextobjectid="41">
 <editorsettings>
  <export target="Fish.json" format="json"/>
 </editorsettings>
 <tileset firstgid="1" name="Room_Builder_32x32" tilewidth="32" tileheight="32" tilecount="8588" columns="76">
  <image source="../../portfolio/public/game/assets/tilesets/Room_Builder_32x32.png" width="2432" height="3616"/>
 </tileset>
 <tileset firstgid="8589" name="16_Grocery_store_32x32" tilewidth="32" tileheight="32" tilecount="1248" columns="16">
  <image source="../../portfolio/public/game/assets/tilesets/16_Grocery_store_32x32.png" width="512" height="2496"/>
 </tileset>
 <tileset firstgid="9837" name="9_Fishing_32x32" tilewidth="32" tileheight="32" tilecount="432" columns="16">
  <image source="../../portfolio/public/game/assets/tilesets/9_Fishing_32x32.png" width="512" height="864"/>
 </tileset>
 <tileset firstgid="10269" name="Premade_Character_48x48_01" tilewidth="32" tileheight="32" tilecount="5124" columns="84">
  <image source="../../../../Users/demor/Maps/interiors/2_Characters/Character_Generator/0_Premade_Characters/48x48/Premade_Character_48x48_01.png" width="2688" height="1968"/>
 </tileset>
 <layer id="1" name="Camada de Blocos 1" width="20" height="20">
  <data encoding="csv">
468,7041,7040,7041,7040,7041,7040,7041,7040,7041,7040,7041,7040,7041,7040,7041,7040,7041,7040,470,
544,7117,7116,7117,7116,7117,7116,7117,7116,7117,7116,7117,7116,7117,7116,7117,7116,7117,7116,546,
544,1179,1180,1180,1180,1180,1180,1180,1180,1180,1180,1180,1180,1180,1180,1180,1180,1180,1181,546,
544,1255,1256,1256,1256,1256,1256,1256,1256,1256,1256,1256,1256,1256,1256,1256,1256,1256,1256,546,
544,1255,1256,1256,1256,1256,1256,1256,1256,1256,1256,1256,1256,1256,1256,1256,1256,1256,1256,546,
544,1255,1256,1256,1256,1256,1256,1256,1256,1256,1256,1256,1256,1256,1256,1256,1256,1256,1256,546,
544,1255,1256,1256,1256,1256,1256,1256,1256,1256,1256,1256,1256,1256,1256,1256,1256,1256,1256,546,
544,1255,1256,1256,1256,1256,1256,1256,1256,1256,1256,1256,1256,1256,1256,1256,1256,1256,1256,546,
544,1255,1256,1256,1256,1256,1256,1256,1256,1256,1256,1256,1256,1256,1256,1256,1256,1256,1256,546,
544,1255,1256,1256,1256,1256,1256,1256,1256,1256,1256,1256,1256,1256,1256,1256,1256,1256,1256,546,
544,1255,1256,1256,1256,1256,1256,1256,1256,1256,1256,1256,1256,1256,1256,1256,1256,1256,1256,546,
544,1255,1256,1256,1256,1256,1256,1256,1256,1256,1256,1256,1256,1256,1256,1256,1256,1256,1256,546,
544,1255,1256,1256,1256,1256,1256,1256,1256,1256,1256,1256,1256,1256,1256,1256,1256,1256,1256,546,
544,1255,1256,1256,1256,1256,1256,1256,1256,1256,1256,1256,1256,1256,1256,1256,1256,1256,1256,546,
544,1255,1256,1256,1256,1256,1256,1256,1256,1256,1256,1256,1256,1256,1256,1256,1256,1256,1256,546,
544,1255,1256,1256,1256,1256,1256,1256,1256,1256,1256,1256,1256,1256,1256,1256,1256,1256,1256,546,
544,1255,1256,1256,1256,1256,1256,1256,1256,1256,1256,1256,1256,1256,1256,1256,1256,1256,1256,546,
544,1255,1256,1256,1256,1256,1256,1256,1256,1256,1256,1256,1256,1256,1256,1256,1256,1256,1256,546,
544,1255,1256,1256,1256,1256,1256,1256,1256,1256,1256,1256,1256,1256,1256,1256,1256,1256,1256,546,
620,621,621,621,621,621,621,621,538,1256,1256,539,621,621,621,621,621,621,621,622
</data>
 </layer>
 <layer id="3" name="Camada de Blocos 2" width="20" height="20">
  <data encoding="csv">
0,0,0,0,9441,0,0,0,9465,9461,9865,9866,9867,10050,10051,10086,10087,10088,0,0,
0,0,9442,9456,9457,9459,9479,9480,9481,9477,9881,9882,9883,10066,10067,10102,10103,10104,0,0,
0,9415,9416,0,0,0,9495,9496,9497,0,0,0,0,10082,10083,10118,10119,10120,0,0,
0,9431,9432,0,0,0,0,0,0,0,9451,9452,0,0,0,0,0,0,0,0,
0,9415,9416,0,0,0,0,0,0,0,0,0,0,0,0,0,0,0,0,0,
0,9431,9432,0,0,0,0,0,0,0,0,0,0,0,0,0,0,2147493611,2147493610,0,
0,0,9245,9247,9247,9247,9247,9247,9249,0,9240,9243,9243,9241,0,0,0,2147493627,2147493626,0,
0,0,9261,9263,9263,9263,9263,9263,9265,0,9256,9259,9259,9257,0,0,0,0,0,0,
0,0,0,0,0,0,0,0,0,0,0,0,0,0,0,0,0,0,9847,0,
0,0,0,0,0,0,0,0,0,0,0,0,0,0,0,0,0,0,9863,0,
0,0,8960,0,0,0,0,0,0,0,0,0,8655,8656,0,0,0,0,0,0,
0,0,8976,0,0,0,0,0,0,0,0,0,8671,8672,0,0,0,0,0,0,
0,0,0,8829,8830,0,8877,8878,0,0,0,0,0,8957,8958,0,0,0,0,0,
0,0,0,8845,8846,0,8893,8894,0,0,0,0,0,8973,8974,0,0,0,0,0,
0,0,0,8861,8862,0,8909,8910,0,0,0,0,0,8989,8990,0,0,0,0,0,
0,0,0,0,0,0,0,0,0,0,0,0,0,0,0,10057,10058,0,0,0,
0,0,0,8915,8916,0,8915,8916,0,0,0,0,8828,0,0,10073,10074,0,0,0,
0,0,0,8931,8932,0,8931,8932,8949,0,0,8950,8844,0,0,10089,10090,0,0,0,
0,0,0,0,0,0,0,0,8965,0,0,8966,0,0,0,0,0,0,0,0,
0,0,0,0,0,0,0,0,0,0,0,0,0,0,0,0,0,0,0,0
</data>
 </layer>
 <layer id="4" name="Camada de Blocos 3" width="20" height="20">
  <data encoding="csv">
0,9987,9988,0,0,0,0,0,0,0,0,0,0,0,0,0,0,0,0,0,
0,10003,10004,0,0,0,9472,9473,0,0,0,0,0,0,0,0,0,0,0,0,
0,9419,9420,0,0,0,9488,9489,0,0,0,0,0,0,0,0,9913,9914,0,0,
0,9435,9436,0,0,0,0,0,0,0,9467,9468,0,0,0,0,9929,9930,0,0,
0,9417,9418,0,0,0,0,0,0,0,0,0,0,0,0,0,0,0,9958,0,
0,9433,9434,0,0,0,0,0,0,0,0,0,0,9276,0,0,0,0,9974,0,
0,0,9384,9385,9386,9387,9353,9355,9356,0,0,0,0,9292,0,0,0,0,0,0,
0,0,9400,9401,9402,9403,9369,9371,9372,0,0,0,0,0,0,0,0,0,0,0,
0,0,0,0,0,0,0,0,0,0,0,0,0,0,0,0,0,0,0,0,
0,0,0,0,0,0,0,0,0,0,0,0,0,0,0,0,0,0,9839,0,
0,0,0,0,0,0,0,0,0,0,0,0,0,0,0,0,0,0,9855,0,
0,0,0,0,0,0,0,0,0,0,0,0,0,0,0,0,0,0,0,0,
0,0,0,0,0,0,0,0,0,0,0,0,0,8922,0,0,0,0,0,0,
0,9869,0,0,0,0,0,0,0,0,0,0,0,0,0,0,0,0,0,0,
0,9885,0,0,0,0,0,0,0,0,0,0,0,0,0,0,0,0,0,0,
0,0,0,0,0,0,0,0,0,0,0,0,0,0,0,0,0,0,0,0,
0,0,0,8899,8900,0,8901,8902,0,0,0,0,0,0,0,0,10059,10060,0,0,
0,0,0,0,0,0,0,0,0,0,0,0,0,0,0,0,10075,10076,0,0,
0,0,0,0,0,0,0,0,0,0,0,0,0,0,0,0,10091,10092,0,0,
0,0,0,0,0,0,0,0,0,0,0,0,0,0,0,0,0,0,0,0
</data>
 </layer>
 <layer id="5" name="Camada de Blocos 4" width="20" height="20">
  <data encoding="csv">
0,0,0,0,0,0,0,0,0,0,0,0,0,0,0,0,0,0,0,0,
0,0,0,0,0,0,9446,0,0,0,0,0,0,0,0,0,0,0,0,0,
0,0,0,0,0,0,0,0,0,0,0,0,0,0,0,0,0,0,0,0,
0,0,0,0,0,0,0,0,0,0,0,0,0,0,0,0,0,0,0,0,
0,0,0,0,0,0,0,0,0,0,0,0,0,0,0,0,0,0,0,0,
0,0,0,0,0,0,0,0,0,0,0,0,0,0,0,0,0,0,0,0,
0,0,0,0,0,0,0,0,0,0,0,0,0,0,0,0,0,0,0,0,
0,0,0,0,0,0,0,0,0,0,0,0,0,0,0,0,0,0,0,0,
0,0,0,0,0,0,0,0,0,0,0,0,0,0,0,0,0,0,0,0,
0,0,0,0,0,0,0,0,0,0,0,0,0,0,0,0,0,0,0,0,
0,0,0,0,0,0,0,0,0,0,0,0,0,0,0,0,0,0,9838,0,
0,0,0,0,0,0,0,0,0,0,0,0,0,0,0,0,0,0,9854,0,
0,9870,0,0,0,0,0,0,0,0,0,0,0,0,0,0,0,0,0,0,
0,9886,0,0,0,0,0,0,0,0,0,0,0,0,0,0,0,0,0,0,
0,0,0,0,0,0,0,0,0,0,0,0,0,0,0,0,0,0,0,0,
0,0,0,0,0,0,0,0,0,0,0,0,0,0,0,0,0,10025,10026,0,
0,0,0,8917,8918,0,8917,8918,0,0,0,0,0,0,0,0,0,10041,10042,0,
0,0,0,0,0,0,0,0,0,0,0,0,0,0,0,0,0,0,0,0,
0,0,0,0,0,0,0,0,0,0,0,0,0,0,0,0,0,0,0,0,
0,0,0,0,0,0,0,0,0,0,0,0,0,0,0,0,0,0,0,0
</data>
 </layer>
 <objectgroup id="6" name="Camada de Objetos 1">
  <object id="1" name="shop" x="320" y="224" width="128" height="64"/>
  <object id="5" name="spawn" x="288" y="576" width="64" height="32"/>
  <object id="6" name="wall" x="608" y="0" width="32" height="640"/>
  <object id="7" name="wall" x="352" y="608" width="256" height="32"/>
  <object id="8" name="wall" x="0" y="0" width="32" height="640"/>
  <object id="9" name="wall" x="32" y="608" width="256" height="32"/>
  <object id="11" name="wall" x="32" y="0" width="576" height="64"/>
  <object id="13" name="wall" x="578" y="273" width="30" height="92"/>
  <object id="15" name="wall" x="416" y="384" width="32" height="96"/>
  <object id="16" name="wall" x="448" y="416" width="32" height="32"/>
  <object id="18" name="wall" x="448.083" y="448.333" width="23.5833" height="31.6458"/>
  <object id="20" name="wall" x="192.667" y="528.667" width="62.3333" height="31"/>
  <object id="21" name="wall" x="96.3333" y="532.333" width="62.6667" height="28"/>
  <object id="22" name="wall" x="113.667" y="404.667" width="28.3333" height="73.3333"/>
  <object id="23" name="wall" x="210" y="406.333" width="27.6667" height="71.3333"/>
  <object id="24" name="wall" x="38" y="158" width="51.5" height="30"/>
  <object id="26" name="wall" x="38" y="97" width="51.5" height="27.5"/>
  <object id="27" name="wall" x="210.667" y="62.6667" width="64" height="25.3333"/>
  <object id="28" name="wall" x="327.333" y="99.3333" width="49.3333" height="24"/>
  <object id="29" name="wall" x="429.333" y="63.3333" width="38.6667" height="18.6667"/>
  <object id="30" name="wall" x="496.667" y="64" width="62.6667" height="18.6667"/>
  <object id="31" name="wall" x="404" y="344.667" width="24.6667" height="35.3333"/>
  <object id="32" name="wall" x="386" y="535.333" width="27.3333" height="18"/>
  <object id="33" name="wall" x="492.667" y="536.667" width="35.3333" height="27.3333"/>
  <object id="34" name="wall" x="526.667" y="562.667" width="32.6667" height="34"/>
  <object id="35" name="wall" x="556" y="514" width="40.6667" height="26.6667"/>
  <object id="36" name="wall" x="32" y="400.667" width="28.6667" height="58.6667"/>
  <object id="37" name="wall" x="65.3333" y="218" width="219.333" height="34.6667"/>
  <object id="38" name="wall" x="320.667" y="217.333" width="126.667" height="20"/>
  <object id="39" name="door" x="288" y="608" width="64" height="32">
   <properties>
    <property name="target" value="city"/>
   </properties>
  </object>
  <object id="40" name="seller" type="npc" x="366.667" y="188.333" width="34" height="24.3333"/>
 </objectgroup>
</map>
